X: 13
T: Au gr\'e de mes ieulx
N: Derived from Bus3005-Au_gre_de_mes_ieulx.krn
C: Antoine Busnoys
%%abc-version 2.0
%%abcx-abcm2ps-target-version 5.9.1 (29 Sep 2008)
%%abc-creator hum2abc beta
%%abcx-conversion-date 2019/02/16 20:26:06
%%abc-edited-by Jesse Rodin
%%abc-edited-by Chris Gage 04-02-2015
%%abcx-initial-encoding-date 2015/11/05/
%%humdrum-veritas 1384856795
%%humdrum-veritas-data 2293521034
%%linebreak <none>
%%barnumbers 0
L: 1/4
M: 3/1
Q: 1/2=120
V: 1 clef=treble
V: 2 clef=treble-8
V: 3 clef=bass
K: F
[V:1] c6Bcd2c2- | 
[V:2] c8f4- | 
[V:3] C,4F,4F,3G, | 
[V:1] c2BAG2F2G4 | 
[V:2] f2d2e8 | 
[V:3] A,2B,2C2A,2G,4 | 
[V:1] A4z4A4 | 
[V:2] f8f4 | 
[V:3] F,2D,4D3CB,A, | 
[V:1] B4A2F2G4 | 
[V:2] g4f2f4e2 | 
[V:3] G,3F,D,2F,2C,4 | 
[V:1] F4z4F2G2 | 
[V:2] f4f4z4 | 
[V:3] z2F,4G,2A,2B,2 | 
[V:1] A8A4 | 
[V:2] F4E2F3GA2- | 
[V:3] C4C4C4 | 
[V:1] A4G6F2 | 
[V:2] A2B2c3de4 | 
[V:3] z2F,2E,2C,4E,2 | 
[V:1] A4z4c4- | 
[V:2] z2f4d2c2A2- | 
[V:3] D,4D,4A,4 | 
[V:1] c4c4c4 | 
[V:2] A2F4f4e2 | 
[V:3] z4A,4F,4 | 
[V:1] B4A2A4G2 | 
[V:2] d4c2A2B4 | 
[V:3] G,4A,2C2D4 | 
[V:1] A4z4A4 | 
[V:2] F8c4 | 
[V:3] C6B,2A,4 | 
[V:1] B8A4- | 
[V:2] d6e2f2ed | 
[V:3] G,8D,2E,2 | 
[V:1] A2GFE2C2D4 | 
[V:2] c6A2=B4 | 
[V:3] F,3E,C,4G,4 | 
[V:1] E8E4 | 
[V:2] z2c2G2c3BAG | 
[V:3] C,12 | 
[V:1] F2G3FEDE2F2- | 
[V:2] A2B3AGFG2A2- | 
[V:3] z2B,,4C,4F,2- | 
[V:1] FGA3GF3EED | 
[V:2] AGF3EF2G4 | 
[V:3] F,E,F,2D,4C,4 | 
[V:1] F12 ]|:  
[V:2] F12 ]|:  
[V:3] F,12 & C12 ||  
[V:1]  [K:F] [K:clef=treble][M:2/1]z8 | 
[V:2]  [K:F] [K:clef=treble-8][M:2/1]c8 | 
[V:3]  [K:F] [K:clef=bass][M:2/1]z8 | 
[V:1] z8 | 
[V:2] d4f4- | 
[V:3] z8 | 
[V:1] c8 | 
[V:2] f4e4 | 
[V:3] z8 | 
[V:1] d4f4- | 
[V:2] f8 | 
[V:3] z8 | 
[V:1] f4e4 | 
[V:2] g8 | 
[V:3] z8 | 
[V:1] f6e2 | 
[V:2] f8- | 
[V:3] z8 | 
[V:1] d2c2c4- | 
[V:2] f4e4 | 
[V:3] z8 | 
[V:1] c4=B4 | 
[V:2] d8 | 
[V:3] z8 | 
[V:1] c8 | 
[V:2] c8- | 
[V:3] z8 | 
[V:1] z4A4 | 
[V:2] c8 | 
[V:3] z8 | 
[V:1] A8 | 
[V:2] z4c4 | 
[V:3] z8 | 
[V:1] B8 | 
[V:2] d4e4 | 
[V:3] z8 | 
[V:1] A8 | 
[V:2] f8 | 
[V:3] z8 | 
[V:1] G4F4- | 
[V:2] e4f4 | 
[V:3] z8 | 
[V:1] F4E4 | 
[V:2] g8 | 
[V:3] z8 | 
[V:1] F8 | 
[V:2] f4z4 | 
[V:3] z8 | 
[V:1] z8 | 
[V:2] a8 | 
[V:3] z8 | 
[V:1] z8 | 
[V:2] g4e4 | 
[V:3] z8 | 
[V:1] A8 | 
[V:2] f8 | 
[V:3] z8 | 
[V:1] G4E4 | 
[V:2] e8 | 
[V:3] z8 | 
[V:1] F8 | 
[V:2] d4d4- | 
[V:3] z8 | 
[V:1] E8 | 
[V:2] d4c4 | 
[V:3] z8 | 
[V:1] D4D4- | 
[V:2] d4f4 | 
[V:3] z8 | 
[V:1] D4C4 | 
[V:2] e8 | 
[V:3] z8 | 
[V:1] D4F4 | 
[V:2] f4a4- | 
[V:3] z8 | 
[V:1] E8 | 
[V:2] a4g4 | 
[V:3] z8 | 
[V:1] F4A4- | 
[V:2] f4e2d2 | 
[V:3] z8 | 
[V:1] A4G4 | 
[V:2] c8 | 
[V:3] z8 | 
[V:1] F4E2D2 | 
[V:2] d4f4 | 
[V:3] z8 | 
[V:1] C8 | 
[V:2] g4a4- | 
[V:3] z8 | 
[V:1] D4F4- | 
[V:2] a4f4 | 
[V:3] z8 | 
[V:1] F2E2E2D2 | 
[V:2] g8 | 
[V:3] z8 | 
[V:1] F8 :|]  
[V:2] f8 :|]  
[V:3] z8 :|]  



